public/symbol-surround.svg

<svg xmlns="http://www.w3.org/2000/svg" width="840" height="320" viewBox="0 0 840 320" xmlns:xlink="http://www.w3.org/1999/xlink">
  <defs>
    <path id="a" d="M146.25,3.27274439e-15 C174,3.27274439e-15 192,18 192,45.75 L192,146.25 C192,174 174,192 146.25,192 L45.75,192 C18,192 0,174 0,146.25 L0,45.75 C0,18 18,3.27274441e-15 45.75,3.27274441e-15 L146.25,3.27274439e-15 Z"/>
    <circle id="b" cx="96" cy="96" r="96"/>
    <rect id="c" width="192" height="192"/>
  </defs>
  <g fill="none" fill-rule="evenodd">
    <rect width="840" height="320" fill="#FFFFFF"/>
    <g transform="translate(0 64)">
      <use fill="#8D989F" xlink:href="#a"/>
      <use fill="#000000" fill-opacity=".72" xlink:href="#a"/>
      <path fill="#FFFFFF" d="M96.3318103,122.297773 C93.0828753,118.418644 91.1163032,113.419615 91.1163032,107.96252 L91.1254303,72.4902499 C91.1254303,69.5974741 93.4649112,67.245125 96.3409374,67.245125 C99.2166377,67.245125 101.556445,69.5974741 101.556445,72.4902499 L101.547317,107.96252 C101.547317,113.419615 99.5807452,118.418644 96.3318103,122.297773 L96.3318103,122.297773 Z M135.448113,107.96252 C135.448113,120.254848 125.614601,130.254875 113.39206,130.254875 C108.468947,130.254875 103.876041,128.612595 100.193241,125.871414 C104.31121,121.051215 106.762824,114.800706 106.762824,107.96252 L106.771952,72.4902499 C106.771952,66.7060108 102.092338,62 96.3409374,62 C90.589211,62 85.9099232,66.7060108 85.9099232,72.4902499 L85.9007961,107.96252 C85.9007961,114.800706 88.5170249,121.051215 92.6349937,125.871414 C88.9521937,128.612595 84.3592878,130.254875 79.4361751,130.254875 C67.2136342,130.254875 57.2155071,120.254848 57.2155071,107.96252 L57.2155071,64.6896646 L52,64.6896646 L52,107.96252 C52,123.146312 64.3926968,135.5 79.4912639,135.5 C85.8923209,135.5 91.8288719,133.262824 96.4964247,129.547431 C101.163978,133.262824 106.963622,135.5 113.364679,135.5 C128.46292,135.5 140.663947,123.146312 140.663947,107.96252 L140.663947,64.6896646 L135.448113,64.6896646 L135.448113,107.96252 Z"/>
    </g>
    <g transform="translate(324 64)">
      <use fill="#8D989F" xlink:href="#b"/>
      <use fill="#000000" fill-opacity=".72" xlink:href="#b"/>
      <path fill="#FFFFFF" d="M96.3318103,122.297773 C93.0828753,118.418644 91.1163032,113.419615 91.1163032,107.96252 L91.1254303,72.4902499 C91.1254303,69.5974741 93.4649112,67.245125 96.3409374,67.245125 C99.2166377,67.245125 101.556445,69.5974741 101.556445,72.4902499 L101.547317,107.96252 C101.547317,113.419615 99.5807452,118.418644 96.3318103,122.297773 L96.3318103,122.297773 Z M135.448113,107.96252 C135.448113,120.254848 125.614601,130.254875 113.39206,130.254875 C108.468947,130.254875 103.876041,128.612595 100.193241,125.871414 C104.31121,121.051215 106.762824,114.800706 106.762824,107.96252 L106.771952,72.4902499 C106.771952,66.7060108 102.092338,62 96.3409374,62 C90.589211,62 85.9099232,66.7060108 85.9099232,72.4902499 L85.9007961,107.96252 C85.9007961,114.800706 88.5170249,121.051215 92.6349937,125.871414 C88.9521937,128.612595 84.3592878,130.254875 79.4361751,130.254875 C67.2136342,130.254875 57.2155071,120.254848 57.2155071,107.96252 L57.2155071,64.6896646 L52,64.6896646 L52,107.96252 C52,123.146312 64.3926968,135.5 79.4912639,135.5 C85.8923209,135.5 91.8288719,133.262824 96.4964247,129.547431 C101.163978,133.262824 106.963622,135.5 113.364679,135.5 C128.46292,135.5 140.663947,123.146312 140.663947,107.96252 L140.663947,64.6896646 L135.448113,64.6896646 L135.448113,107.96252 Z"/>
    </g>
    <g transform="translate(648 64)">
      <use fill="#8D989F" xlink:href="#c"/>
      <use fill="#000000" fill-opacity=".72" xlink:href="#c"/>
      <path fill="#FFFFFF" d="M96.3318103,122.297773 C93.0828753,118.418644 91.1163032,113.419615 91.1163032,107.96252 L91.1254303,72.4902499 C91.1254303,69.5974741 93.4649112,67.245125 96.3409374,67.245125 C99.2166377,67.245125 101.556445,69.5974741 101.556445,72.4902499 L101.547317,107.96252 C101.547317,113.419615 99.5807452,118.418644 96.3318103,122.297773 L96.3318103,122.297773 Z M135.448113,107.96252 C135.448113,120.254848 125.614601,130.254875 113.39206,130.254875 C108.468947,130.254875 103.876041,128.612595 100.193241,125.871414 C104.31121,121.051215 106.762824,114.800706 106.762824,107.96252 L106.771952,72.4902499 C106.771952,66.7060108 102.092338,62 96.3409374,62 C90.589211,62 85.9099232,66.7060108 85.9099232,72.4902499 L85.9007961,107.96252 C85.9007961,114.800706 88.5170249,121.051215 92.6349937,125.871414 C88.9521937,128.612595 84.3592878,130.254875 79.4361751,130.254875 C67.2136342,130.254875 57.2155071,120.254848 57.2155071,107.96252 L57.2155071,64.6896646 L52,64.6896646 L52,107.96252 C52,123.146312 64.3926968,135.5 79.4912639,135.5 C85.8923209,135.5 91.8288719,133.262824 96.4964247,129.547431 C101.163978,133.262824 106.963622,135.5 113.364679,135.5 C128.46292,135.5 140.663947,123.146312 140.663947,107.96252 L140.663947,64.6896646 L135.448113,64.6896646 L135.448113,107.96252 Z"/>
    </g>
  </g>
</svg>

<svg xmlns="http://www.w3.org/2000/svg" width="840" height="320" viewBox="0 0 840 320" xmlns:xlink="http://www.w3.org/1999/xlink">
  <defs>
    <path id="a" d="M146.25 0C174 0 192 18 192 45.75v100.5C192 174 174 192 146.25 192H45.75C18 192 0 174 0 146.25V45.75C0 18 18 0 45.75 0h100.5z"/>
    <mask id="d" width="192" height="192" x="0" y="0" fill="#fff">
      <use xlink:href="#a"/>
    </mask>
    <circle id="b" cx="96" cy="96" r="96"/>
    <mask id="e" width="192" height="192" x="0" y="0" fill="#fff">
      <use xlink:href="#b"/>
    </mask>
    <path id="c" d="M0 0h192v192H0z"/>
    <mask id="f" width="192" height="192" x="0" y="0" fill="#fff">
      <use xlink:href="#c"/>
    </mask>
  </defs>
  <g fill="none" fill-rule="evenodd">
    <path fill="#FFF" d="M0 0h840v320H0z"/>
    <g transform="translate(0 64)">
      <use stroke="#8D989F" stroke-opacity=".4" stroke-width="4" mask="url(#d)" xlink:href="#a"/>
      <path fill="#272A2C" d="M96.332 122.298c-3.25-3.88-5.216-8.878-5.216-14.335l.01-35.473c0-2.893 2.34-5.245 5.215-5.245 2.878 0 5.217 2.352 5.217 5.245l-.01 35.473c0 5.457-1.965 10.456-5.214 14.335zm39.116-14.335c0 12.292-9.833 22.292-22.056 22.292-4.923 0-9.516-1.642-13.2-4.384 4.12-4.82 6.57-11.07 6.57-17.906l.01-35.473c0-5.783-4.68-10.49-10.43-10.49-5.753 0-10.432 4.707-10.432 10.49l-.01 35.474c0 6.838 2.617 13.088 6.735 17.908-3.683 2.743-8.276 4.385-13.2 4.385-12.22 0-22.22-10-22.22-22.292V64.69H52v43.273c0 15.183 12.393 27.537 27.49 27.537 6.402 0 12.34-2.237 17.006-5.953 4.668 3.716 10.468 5.953 16.87 5.953 15.097 0 27.298-12.354 27.298-27.537V64.69h-5.216v43.273z"/>
    </g>
    <g transform="translate(324 64)">
      <use stroke="#8D989F" stroke-opacity=".4" stroke-width="4" mask="url(#e)" xlink:href="#b"/>
      <path fill="#272A2C" d="M96.332 122.298c-3.25-3.88-5.216-8.878-5.216-14.335l.01-35.473c0-2.893 2.34-5.245 5.215-5.245 2.878 0 5.217 2.352 5.217 5.245l-.01 35.473c0 5.457-1.965 10.456-5.214 14.335zm39.116-14.335c0 12.292-9.833 22.292-22.056 22.292-4.923 0-9.516-1.642-13.2-4.384 4.12-4.82 6.57-11.07 6.57-17.906l.01-35.473c0-5.783-4.68-10.49-10.43-10.49-5.753 0-10.432 4.707-10.432 10.49l-.01 35.474c0 6.838 2.617 13.088 6.735 17.908-3.683 2.743-8.276 4.385-13.2 4.385-12.22 0-22.22-10-22.22-22.292V64.69H52v43.273c0 15.183 12.393 27.537 27.49 27.537 6.402 0 12.34-2.237 17.006-5.953 4.668 3.716 10.468 5.953 16.87 5.953 15.097 0 27.298-12.354 27.298-27.537V64.69h-5.216v43.273z"/>
    </g>
    <g transform="translate(648 64)">
      <use stroke="#8D989F" stroke-opacity=".4" stroke-width="4" mask="url(#f)" xlink:href="#c"/>
      <path fill="#272A2C" d="M96.332 122.298c-3.25-3.88-5.216-8.878-5.216-14.335l.01-35.473c0-2.893 2.34-5.245 5.215-5.245 2.878 0 5.217 2.352 5.217 5.245l-.01 35.473c0 5.457-1.965 10.456-5.214 14.335zm39.116-14.335c0 12.292-9.833 22.292-22.056 22.292-4.923 0-9.516-1.642-13.2-4.384 4.12-4.82 6.57-11.07 6.57-17.906l.01-35.473c0-5.783-4.68-10.49-10.43-10.49-5.753 0-10.432 4.707-10.432 10.49l-.01 35.474c0 6.838 2.617 13.088 6.735 17.908-3.683 2.743-8.276 4.385-13.2 4.385-12.22 0-22.22-10-22.22-22.292V64.69H52v43.273c0 15.183 12.393 27.537 27.49 27.537 6.402 0 12.34-2.237 17.006-5.953 4.668 3.716 10.468 5.953 16.87 5.953 15.097 0 27.298-12.354 27.298-27.537V64.69h-5.216v43.273z"/>
    </g>
  </g>
</svg>
